X:42
T: Fang fengzhen
N: C0054
O: China, Ningxia, Longde
S: I, 189]
N: vgl. 187.  Vereinzelt Verzierungen.
R: Xiaodiao, Xiuhebao diao. Chunyou yule]
M: 2/4
L: 1/16
K: Bb
c4c2g2 | c6f2 | c4b2g2 | f8
c4f2d2 | c4b2g2 | b2g2f2c2 | f8
f3gc4 | c2d2c4 | f2g2c4 | c3bg2f2
g2e4f2 | b4b2d2 | c6f2 | c8
c2b2c2f2 | c2b2g2f2
g2e4f2 | b4b2d2 | c6f2 | c8

